src/lib/packages/icons/src/assets/line/bowl-hot.svg

<svg width="24" height="24" viewBox="0 0 24 24" fill="none" xmlns="http://www.w3.org/2000/svg">
<path d="M21.74 12.2202C21.8 11.7202 21.65 11.2202 21.31 10.8502C20.98 10.4702 20.5 10.2502 19.99 10.2502H4.00996C3.50996 10.2502 3.02997 10.4702 2.68997 10.8502C2.35997 11.2302 2.19996 11.7302 2.25996 12.2202C2.38996 13.2802 2.70996 14.3102 3.17996 15.2502C3.17996 15.2802 3.19997 15.3002 3.20997 15.3302C4.04997 17.0202 5.36996 18.4602 7.03996 19.4302C7.12996 19.4802 7.18997 19.5702 7.18997 19.6602V20.0102C7.18997 20.9702 7.97997 21.7602 8.93997 21.7602H15.06C16.02 21.7602 16.81 20.9702 16.81 20.0102V19.6602C16.81 19.5702 16.87 19.4902 16.96 19.4302C18.62 18.4602 19.95 17.0202 20.79 15.3302C20.8 15.3102 20.81 15.2902 20.82 15.2702C21.29 14.3202 21.61 13.2902 21.74 12.2302V12.2202ZM3.81997 11.8402C3.81997 11.8402 3.90996 11.7502 4.00996 11.7502H19.99C20.09 11.7502 20.16 11.8102 20.18 11.8402C20.21 11.8702 20.25 11.9402 20.24 12.0302C20.14 12.8002 19.92 13.5402 19.62 14.2502H4.36996C4.06996 13.5502 3.84997 12.8002 3.74997 12.0302C3.73997 11.9402 3.77996 11.8702 3.80996 11.8402H3.81997ZM16.21 18.1302C15.65 18.4602 15.31 19.0302 15.31 19.6502V20.0002C15.31 20.1402 15.2 20.2502 15.06 20.2502H8.93997C8.79997 20.2502 8.68997 20.1402 8.68997 20.0002V19.6502C8.68997 19.0202 8.35996 18.4502 7.78996 18.1302C6.75996 17.5302 5.88997 16.7102 5.20997 15.7502H18.78C18.1 16.7102 17.23 17.5302 16.2 18.1302H16.21ZM11.17 6.38019C10.42 5.62019 10.42 4.38019 11.17 3.63019L11.32 3.4802C11.61 3.1902 12.09 3.1902 12.38 3.4802C12.67 3.7702 12.68 4.25019 12.38 4.54019L12.23 4.69019C12.05 4.87019 12.05 5.15017 12.23 5.33017L12.53 5.63019C13.28 6.39019 13.28 7.63019 12.53 8.38019L12.38 8.53018C12.23 8.68018 12.04 8.75018 11.85 8.75018C11.66 8.75018 11.47 8.68018 11.32 8.53018C11.03 8.24018 11.02 7.76019 11.32 7.47019L11.47 7.32019C11.65 7.14019 11.65 6.86018 11.47 6.68018L11.17 6.38019ZM16.17 6.38019C15.42 5.62019 15.42 4.38019 16.17 3.63019L16.32 3.4802C16.61 3.1902 17.09 3.1902 17.38 3.4802C17.67 3.7702 17.68 4.25019 17.38 4.54019L17.23 4.69019C17.05 4.87019 17.05 5.15017 17.23 5.33017L17.53 5.63019C18.28 6.39019 18.28 7.63019 17.53 8.38019L17.38 8.53018C17.23 8.68018 17.04 8.75018 16.85 8.75018C16.66 8.75018 16.47 8.68018 16.32 8.53018C16.03 8.24018 16.02 7.76019 16.32 7.47019L16.47 7.32019C16.65 7.14019 16.65 6.86018 16.47 6.68018L16.17 6.38019ZM6.16996 6.38019C5.41996 5.62019 5.41996 4.38019 6.16996 3.63019L6.31997 3.4802C6.60997 3.1902 7.08997 3.1902 7.37997 3.4802C7.66997 3.7702 7.67997 4.25019 7.37997 4.54019L7.22996 4.69019C7.04996 4.87019 7.04996 5.15017 7.22996 5.33017L7.52996 5.63019C8.27996 6.39019 8.27996 7.63019 7.52996 8.38019L7.37997 8.53018C7.22997 8.68018 7.03997 8.75018 6.84997 8.75018C6.65997 8.75018 6.46997 8.68018 6.31997 8.53018C6.02997 8.24018 6.01997 7.76019 6.31997 7.47019L6.46997 7.32019C6.64997 7.14019 6.64997 6.86018 6.46997 6.68018L6.16996 6.38019Z" fill="currentColor"/>
</svg>

<svg xmlns="http://www.w3.org/2000/svg" width="24" height="24" fill="none"><path fill="currentColor" d="M21.74 12.22c.06-.5-.09-1-.43-1.37-.33-.38-.81-.6-1.32-.6H4.01a1.773 1.773 0 0 0-1.75 1.97c.13 1.06.45 2.09.92 3.03 0 .03.02.05.03.08a9.762 9.762 0 0 0 3.83 4.1c.09.05.15.14.15.23v.35c0 .96.79 1.75 1.75 1.75h6.12c.96 0 1.75-.79 1.75-1.75v-.35c0-.09.06-.17.15-.23a9.825 9.825 0 0 0 3.83-4.1l.03-.06c.47-.95.79-1.98.92-3.04v-.01Zm-17.92-.38s.09-.09.19-.09h15.98c.1 0 .17.06.19.09.03.03.07.1.06.19-.1.77-.32 1.51-.62 2.22H4.37c-.3-.7-.52-1.45-.62-2.22a.24.24 0 0 1 .06-.19h.01Zm12.39 6.29c-.56.33-.9.9-.9 1.52V20c0 .14-.11.25-.25.25H8.94c-.14 0-.25-.11-.25-.25v-.35c0-.63-.33-1.2-.9-1.52-1.03-.6-1.9-1.42-2.58-2.38h13.57c-.68.96-1.55 1.78-2.58 2.38h.01ZM11.17 6.38c-.75-.76-.75-2 0-2.75l.15-.15c.29-.29.77-.29 1.06 0 .29.29.3.77 0 1.06l-.15.15c-.18.18-.18.46 0 .64l.3.3c.75.76.75 2 0 2.75l-.15.15c-.15.15-.34.22-.53.22s-.38-.07-.53-.22a.745.745 0 0 1 0-1.06l.15-.15c.18-.18.18-.46 0-.64l-.3-.3Zm5 0c-.75-.76-.75-2 0-2.75l.15-.15c.29-.29.77-.29 1.06 0 .29.29.3.77 0 1.06l-.15.15c-.18.18-.18.46 0 .64l.3.3c.75.76.75 2 0 2.75l-.15.15c-.15.15-.34.22-.53.22s-.38-.07-.53-.22a.745.745 0 0 1 0-1.06l.15-.15c.18-.18.18-.46 0-.64l-.3-.3Zm-10 0c-.75-.76-.75-2 0-2.75l.15-.15c.29-.29.77-.29 1.06 0 .29.29.3.77 0 1.06l-.15.15c-.18.18-.18.46 0 .64l.3.3c.75.76.75 2 0 2.75l-.15.15c-.15.15-.34.22-.53.22s-.38-.07-.53-.22a.745.745 0 0 1 0-1.06l.15-.15c.18-.18.18-.46 0-.64l-.3-.3Z"/></svg>
